packages/ui-icons/svg/Line/mic-off.svg

<svg viewBox="0 0 1920 1920" xmlns="http://www.w3.org/2000/svg">
    <path d="M621.452 435.678c0-186.858 152.004-338.862 338.862-338.862 159.316 0 293.306 110.504 329.336 258.896L724.351 1162.76c-63.433-61.62-102.899-147.78-102.899-242.994V435.678Zm46.834 807.122c-88.168-79.79-143.65-195.06-143.65-323.033V435.679C524.636 195.475 720.111 0 960.315 0c176.955 0 329.645 106.09 397.775 257.997L1538.8 0l92.38 64.669L333.381 1917.48 241 1852.81l305.287-435.84C414.414 1301.53 331 1132.02 331 943.411V709.984h96.818v233.427c0 155.809 67.319 296.239 174.392 393.719l66.076-94.33Zm292.028 15.83c-9.387 0-18.687-.39-27.883-1.14l-62.071 88.62c29.036 6.12 59.127 9.34 89.955 9.34 240.205 0 435.675-195.48 435.675-435.683V595.685l-96.81 138.223v185.858c0 186.854-152.01 338.864-338.866 338.864Zm-162.996 191.75-57.715 82.4c54.294 20.4 112.13 33.5 172.305 38.1v252.3H669.861V1920h580.909v-96.82h-242.044v-252.3c324.464-24.8 580.904-296.76 580.904-627.469V709.984h-96.82v233.427c0 293.549-238.94 532.499-532.495 532.499-56.824 0-111.602-8.96-162.997-25.53Z" fill-rule="evenodd"/>
</svg>

<svg viewBox="0 0 1920 1920" version="1.1" xmlns="http://www.w3.org/2000/svg">
    <path d="M621.452,435.678 C621.452,248.82 773.456,96.8164 960.314,96.8164 C1119.63,96.8164 1253.62,207.32 1289.65,355.712 L724.351,1162.76 C660.918,1101.14 621.452,1014.98 621.452,919.766 L621.452,435.678 Z M668.286,1242.8 C580.118,1163.01 524.636,1047.74 524.636,919.767 L524.636,435.679 C524.636,195.475 720.111,0 960.315,0 C1137.27,0 1289.96,106.09 1358.09,257.997 L1538.8,0 L1631.18,64.6686 L333.381,1917.48 L241,1852.81 L546.287,1416.97 C414.414,1301.53 331,1132.02 331,943.411 L331,709.984 L427.818,709.984 L427.818,943.411 C427.818,1099.22 495.137,1239.65 602.21,1337.13 L668.286,1242.8 Z M960.314,1258.63 C950.927,1258.63 941.627,1258.24 932.431,1257.49 L870.36,1346.11 C899.396,1352.23 929.487,1355.45 960.315,1355.45 C1200.52,1355.45 1395.99,1159.97 1395.99,919.767 L1395.99,595.685 L1299.18,733.908 L1299.18,919.766 C1299.18,1106.62 1147.17,1258.63 960.314,1258.63 Z M797.318,1450.38 L739.603,1532.78 C793.897,1553.18 851.733,1566.28 911.908,1570.88 L911.908,1823.18 L669.861,1823.18 L669.861,1920 L1250.77,1920 L1250.77,1823.18 L1008.726,1823.18 L1008.726,1570.88 C1333.19,1546.08 1589.63,1274.12 1589.63,943.411 L1589.63,709.984 L1492.81,709.984 L1492.81,943.411 C1492.81,1236.96 1253.87,1475.91 960.315,1475.91 C903.491,1475.91 848.713,1466.95 797.318,1450.38 Z" stroke="none" stroke-width="1" fill-rule="evenodd"/>
</svg>
